icons/wechat-fill.svg

<svg xmlns="http://www.w3.org/2000/svg" width="24" height="24" fill="none"><g clip-path="url(#a)"><g><path fill="#121212" d="M18.574 13.711C18.8112 13.7079 19.0378 13.6123 19.2055 13.4445C19.3733 13.2768 19.4689 13.0502 19.472 12.813C19.472 12.315 19.073 11.915 18.574 11.915C18.075 11.915 17.676 12.315 17.676 12.813C17.676 13.313 18.076 13.711 18.574 13.711ZM14.149 13.711C14.3862 13.7079 14.6128 13.6123 14.7805 13.4445C14.9483 13.2768 15.0439 13.0502 15.047 12.813C15.047 12.315 14.647 11.915 14.149 11.915C13.649 11.915 13.251 12.315 13.251 12.813C13.251 13.313 13.65 13.711 14.149 13.711ZM20.716 18.751C20.6519 18.7866 20.6008 18.8416 20.5699 18.908C20.539 18.9745 20.5299 19.0491 20.544 19.121C20.544 19.169 20.544 19.218 20.569 19.268C20.667 19.685 20.863 20.349 20.863 20.374C20.863 20.447 20.888 20.496 20.888 20.546C20.888 20.575 20.8823 20.6037 20.8712 20.6304C20.86 20.6572 20.8437 20.6815 20.8232 20.7019C20.8027 20.7224 20.7783 20.7385 20.7515 20.7495C20.7247 20.7605 20.696 20.7661 20.667 20.766C20.617 20.766 20.593 20.742 20.544 20.718L19.095 19.882C18.9892 19.8238 18.8716 19.7903 18.751 19.784C18.678 19.784 18.604 19.784 18.555 19.808C17.867 20.005 17.155 20.103 16.394 20.103C12.734 20.103 9.787 17.646 9.787 14.598C9.787 11.551 12.734 9.093 16.394 9.093C20.053 9.093 23 11.551 23 14.598C23 16.245 22.116 17.744 20.716 18.752V18.751ZM16.673 8.099C16.5797 8.0959 16.4864 8.09423 16.393 8.094C12.219 8.094 8.787 10.954 8.787 14.599C8.787 15.153 8.867 15.689 9.015 16.199H8.926C8.05226 16.1902 7.18347 16.0664 6.342 15.831C6.268 15.806 6.194 15.806 6.12 15.806C5.97221 15.8091 5.82793 15.8516 5.702 15.929L3.954 16.934C3.904 16.959 3.855 16.984 3.806 16.984C3.73463 16.9832 3.66641 16.9545 3.61594 16.9041C3.56548 16.8536 3.53678 16.7854 3.536 16.714C3.536 16.64 3.56 16.591 3.585 16.517C3.609 16.493 3.831 15.683 3.954 15.193C3.954 15.143 3.978 15.07 3.978 15.021C3.97773 14.9353 3.95764 14.8508 3.9193 14.7741C3.88097 14.6974 3.82542 14.6307 3.757 14.579C2.058 13.376 1 11.586 1 9.598C1 5.945 4.57 3 8.95 3C12.715 3 15.88 5.169 16.673 8.098V8.099ZM11.519 8.517C12.092 8.517 12.545 8.04 12.545 7.491C12.545 6.918 12.092 6.465 11.519 6.465C10.946 6.465 10.493 6.918 10.493 7.491C10.493 8.064 10.946 8.517 11.519 8.517ZM6.259 8.517C6.832 8.517 7.286 8.04 7.286 7.491C7.286 6.918 6.832 6.465 6.259 6.465C5.687 6.465 5.233 6.918 5.233 7.491C5.233 8.064 5.687 8.517 6.259 8.517Z"/></g></g><defs><clipPath id="a"><rect width="24" height="24" fill="white"/></clipPath></defs></svg>

<svg width="24" height="24" fill="none" xmlns="http://www.w3.org/2000/svg"><g clip-path="url(#a)"><path d="M18.574 13.711a.91.91 0 0 0 .898-.898.895.895 0 0 0-.898-.898c-.499 0-.898.4-.898.898 0 .5.4.898.898.898Zm-4.425 0a.91.91 0 0 0 .898-.898c0-.498-.4-.898-.898-.898-.5 0-.898.4-.898.898 0 .5.399.898.898.898Zm6.567 5.04a.347.347 0 0 0-.172.37c0 .048 0 .097.025.147.098.417.294 1.081.294 1.106 0 .073.025.122.025.172a.22.22 0 0 1-.221.22c-.05 0-.074-.024-.123-.048l-1.449-.836a.8.8 0 0 0-.344-.098c-.073 0-.147 0-.196.024-.688.197-1.4.295-2.161.295-3.66 0-6.607-2.457-6.607-5.505 0-3.047 2.947-5.505 6.607-5.505 3.659 0 6.606 2.458 6.606 5.505 0 1.647-.884 3.146-2.284 4.154v-.001ZM16.673 8.099a9.105 9.105 0 0 0-.28-.005c-4.174 0-7.606 2.86-7.606 6.505 0 .554.08 1.09.228 1.6h-.089a9.964 9.964 0 0 1-2.584-.368c-.074-.025-.148-.025-.222-.025a.832.832 0 0 0-.418.123l-1.748 1.005c-.05.025-.099.05-.148.05a.273.273 0 0 1-.27-.27c0-.074.024-.123.049-.197.024-.024.246-.834.369-1.324 0-.05.024-.123.024-.172a.556.556 0 0 0-.221-.442C2.058 13.376 1 11.586 1 9.598 1 5.945 4.57 3 8.95 3c3.765 0 6.93 2.169 7.723 5.098v.001Zm-5.154.418c.573 0 1.026-.477 1.026-1.026 0-.573-.453-1.026-1.026-1.026s-1.026.453-1.026 1.026.453 1.026 1.026 1.026Zm-5.26 0c.573 0 1.027-.477 1.027-1.026 0-.573-.454-1.026-1.027-1.026-.572 0-1.026.453-1.026 1.026s.454 1.026 1.026 1.026Z" /></g><defs><clipPath id="a"><path fill="#fff" d="M0 0h24v24H0z"/></clipPath></defs></svg>
